X:1
T:Faithful Hussar
C:German folk
Z:Copyright © www.realbook.site
L:1/4
M:4/4
I:linebreak $
K:Eb
V:1 treble nm=" " snm=" "
V:1
 B ||"Eb6" c c B z | z2 z G |"Bb7" B B A z | z2 z B |$"Bb7" d d c z | z2 z A |"Eb6" c c B z | %8
 z2 z B |$"Eb7" B B e z | z2 z B |"Ab" d d c z | z2 z e |$"Eb6" d c B z |"Bb7" z2 z G | %15
"Eb" A A G z | z4 |] %17

